T: Waltz Of The Little Girls, The
M: 3/4
L: 1/8
K: Dmaj
F2 FE D<E | F2 dc BA | F2 FE DF | G2 GF GA | B2 BA GF | E2 EF GA | B^A B=A Bc |[1 BA :|[2 d2 ||c2 cB AF | DF BF AF | EF Ad Ec | d2 DF Ad | c3 B AF | DF BF A2 | D/E/F Ad Ec | d2 :|
